svgs/sharp-solid/plus-minus.svg

<svg xmlns="http://www.w3.org/2000/svg" viewBox="0 0 384 512"><!--! Font Awesome Pro 6.6.0 by @fontawesome - https://fontawesome.com License - https://fontawesome.com/license (Commercial License) Copyright 2024 Fonticons, Inc. --><path d="M224 32l0-32L160 0l0 32 0 112L48 144l-32 0 0 64 32 0 112 0 0 112 0 32 64 0 0-32 0-112 112 0 32 0 0-64-32 0-112 0 0-112zM32 448L0 448l0 64 32 0 320 0 32 0 0-64-32 0L32 448z"/></svg>

<svg xmlns="http://www.w3.org/2000/svg" viewBox="0 0 384 512"><!--! Font Awesome Pro 6.4.0 by @fontawesome - https://fontawesome.com License - https://fontawesome.com/license (Commercial License) Copyright 2023 Fonticons, Inc. --><path d="M224 32V0H160V32 144H48 16v64H48 160V320v32h64V320 208H336h32V144H336 224V32zM32 448H0v64H32 352h32V448H352 32z"/></svg>
